img/Group 8.svg

<svg width="56" height="56" viewBox="0 0 56 56" fill="none" xmlns="http://www.w3.org/2000/svg">
<g id="Group 8">
<circle id="Oval" cx="28" cy="28" r="28" fill="url(#paint0_linear_0_416)"/>
<g id="Running">
<path id="Shape" fill-rule="evenodd" clip-rule="evenodd" d="M34.8761 18.7159C34.8634 19.4681 34.5346 20.1802 33.9703 20.6777C33.1606 21.297 32.0705 21.4056 31.1546 20.9582C30.2387 20.5108 29.6543 19.5843 29.6451 18.565C29.6617 17.8243 29.9686 17.1198 30.4996 16.6031C30.9731 16.2279 31.5555 16.0163 32.1594 16C32.8807 15.9972 33.5732 16.2824 34.0833 16.7923C34.5934 17.3022 34.8787 17.9947 34.8761 18.7159ZM25.172 21.1902C25.1986 21.1739 25.218 21.1619 25.218 21.1306L25.2126 21.1276C26.996 20.8279 28.827 21.2047 30.3471 22.1843C30.6763 22.3497 30.9954 22.5344 31.3027 22.7376C31.3784 22.7501 31.4486 22.7851 31.5042 22.838H31.4544C31.4285 22.8635 31.4157 22.8761 31.403 22.8889C31.3904 22.9014 31.378 22.9141 31.3533 22.9392C32.4256 23.6417 33.7627 23.8087 34.9749 23.3913H35.0255C35.0255 23.3598 35.0448 23.3479 35.0716 23.3314C35.0878 23.3214 35.1068 23.3097 35.1259 23.2909C35.9507 22.9561 36.6532 22.3769 37.1391 21.631C37.1776 21.5549 37.2295 21.4864 37.2923 21.4287C38.3989 20.5743 40.2603 21.8318 39.3039 23.0894C38.9193 23.6647 38.463 24.1887 37.946 24.6489C36.2736 26.0977 33.9688 26.5741 31.859 25.9072C30.954 27.4667 30.0988 29.0261 29.2428 30.6354C29.5961 30.8362 29.9478 31.0378 30.2497 31.2393L30.1493 31.3397C31.0575 31.9443 31.9602 32.6486 32.5135 33.1022C33.2603 33.6551 34.1303 35.5906 34.811 37.105C35.0012 37.5282 35.1767 37.9186 35.3305 38.2367C35.6055 38.7107 35.5224 39.3111 35.129 39.6927C34.8024 39.9553 34.3748 40.0569 33.965 39.9692C33.5552 39.8815 33.2067 39.6138 33.0162 39.2406C32.904 38.997 32.7761 38.7103 32.6385 38.4015C32.0355 37.0486 31.2442 35.2735 30.7532 34.8648C29.4825 33.8526 28.0768 33.0226 26.5767 32.3988C26.5533 32.3988 26.5166 32.3867 26.4793 32.3744C26.4407 32.3618 26.4016 32.3489 26.3759 32.3489C24.2766 34.9659 20.587 35.6695 17.6719 34.0088C17.2385 33.7444 16.9819 33.2663 17.001 32.759C17.0201 32.2516 17.3119 31.7942 17.7639 31.5631C18.2159 31.3319 18.7576 31.3631 19.1801 31.6447C21.4952 32.9528 23.8585 31.2424 24.9659 29.079C26.0227 26.9632 26.8281 25.4573 27.6833 23.8978C25.9721 23.3438 24.4126 23.8457 23.1558 25.6083C22.1994 27.016 19.8353 25.6581 20.8407 24.2496C21.2411 23.6863 21.6962 23.1639 22.1994 22.6901C23.0329 21.9745 24.0388 21.489 25.1176 21.2816V21.231C25.1366 21.212 25.1557 21.2003 25.172 21.1902Z" fill="white"/>
</g>
</g>
<defs>
<linearGradient id="paint0_linear_0_416" x1="0" y1="0" x2="0" y2="56" gradientUnits="userSpaceOnUse">
<stop stop-color="#FF6F48"/>
<stop offset="1" stop-color="#F02AA6"/>
</linearGradient>
</defs>
</svg>

<svg width="56" height="56" fill="none" xmlns="http://www.w3.org/2000/svg"><circle cx="28" cy="28" r="28" fill="url(#a)"/><path fill-rule="evenodd" clip-rule="evenodd" d="M34.876 18.716a2.676 2.676 0 0 1-.906 1.962 2.69 2.69 0 0 1-4.325-2.113c.017-.74.324-1.445.855-1.962A2.794 2.794 0 0 1 32.16 16a2.706 2.706 0 0 1 2.716 2.716Zm-9.704 2.474c.027-.016.046-.028.046-.06l-.005-.002a7.258 7.258 0 0 1 5.134 1.056c.33.166.648.35.956.554a.383.383 0 0 1 .201.1h-.05l-.051.05-.05.051c1.073.703 2.41.87 3.622.452h.05c0-.031.02-.043.047-.06.016-.01.035-.021.054-.04a4.36 4.36 0 0 0 2.013-1.66.71.71 0 0 1 .153-.202c1.107-.855 2.968.403 2.012 1.66-.385.576-.841 1.1-1.358 1.56a6.366 6.366 0 0 1-6.087 1.258 145.32 145.32 0 0 0-2.616 4.728c.353.201.705.403 1.007.604l-.1.1a31.56 31.56 0 0 1 2.364 1.763c.746.553 1.616 2.489 2.297 4.003.19.423.366.814.52 1.132a1.194 1.194 0 0 1-.202 1.456 1.393 1.393 0 0 1-2.113-.452c-.112-.244-.24-.53-.377-.84-.604-1.352-1.395-3.128-1.886-3.536a17.468 17.468 0 0 0-4.176-2.466.389.389 0 0 1-.098-.025c-.038-.012-.077-.025-.103-.025a6.826 6.826 0 0 1-8.704 1.66 1.402 1.402 0 1 1 1.508-2.364c2.315 1.308 4.678-.403 5.786-2.566a142.1 142.1 0 0 1 2.717-5.181c-1.71-.554-3.27-.052-4.527 1.71-.957 1.408-3.32.05-2.315-1.358.4-.564.855-1.086 1.358-1.56a6.308 6.308 0 0 1 2.919-1.408v-.051c.019-.019.038-.03.054-.04Z" fill="#fff"/><defs><linearGradient id="a" x1="0" y1="0" x2="0" y2="56" gradientUnits="userSpaceOnUse"><stop stop-color="#FF6F48"/><stop offset="1" stop-color="#F02AA6"/></linearGradient></defs></svg>
